X:1
T: The Market Town
C:
R:Jig
Q:180
K:A
M:6/8
L:1/16
E2|E2F2E2 E2C2E2|E2F2A2 A4f2|e2d2c2 B2c2d2|c2B2A2 F2G2A2|E2F2E2 E2C2E2|E2F2A2 A4f2|e2d2c2 B2A2B2|c2A2A2 A4E2|
E2F2E2 E2C2E2|E2F2A2 A4f2|e2d2c2 B2c2d2|c2B2A2 F2G2A2|E2F2E2 E2C2E2|E2F2A2 A4f2|e2d2c2 B2A2B2|c2A2A2 A4cd|
e2f2e2 e2c2e2|f4g2 a4f2|e2d2c2 B2c2d2|c2B2A2 F4F2|e2f2e2 e2c2e2|f4g2 a4f2|e2d2c2 B2A2B2|c2A2A2 A4cd|
e2f2e2 e2c2e2|f4g2 a4f2|e2d2c2 B2c2d2|c2B2A2 F4F2|A2c2e2 d2e2f2|c2d2e2 f2g2a2|e2d2c2 B2A2B2|c2A2A2 A4||
